!!!COM: Hugo Wolf
!!!CNT: Deutscher
!!!TXO: Deutsche 
!!!OTL: Er ist's
!!!ONM: No. 6
!!!ODT: 1888/
!!!LYR: Moericke
!!!ENC: Brian Bice
!!!YOR: 65 Songs for voice and piano, International Music Company, 1960
!!NB: Vocal melody and text only encoded.
**kern	**silbe
*clefG2	*
*k[f#]	*
*M4/8	*
=3	=3
{8.dd	{Fru2h-
16b	-ling
8b	la2sst
8g	sein
=4	=4
8d	blau-
16g	-es
16b	|
4dd	Band
=5	=5
8.ee	wie-
16g	-der
16cc	flat-
16dd	-tern
16ee	durch
16ff#	die
=6	=6
8gg	Luf-
8dd}	-te;}
4r	.
=7	=7
{8.cc#	{su2-
16cc#	-sse,
8cc#	wohl-
8ff#	-be-
=8	=8
8ee	-kann-
8dd	-te
8cc#	Du2f-
8b	-te
=9	=9
8a	strei-
8cc#	-fen
[4ee	ah-
=10	=10
8ee]	|
8dd#	-nungs-
8cc#	-voll
8b#	das
=11	=11
[2ee#	Land.
=12	=12
2ee#_	|
=13	=13
4ee#]}	|}
4r	.
=15	=15
{8.a	{Veil-
16a	-chen
8cc#	tra2u-
8ee	-men
=16	=16
[4dd#	schon,
8dd#]	|
8r	.
=17	=17
8.a	wol-
16a	-len
8cc#	bal-
8ee	-de
=18	=18
4ffn	kom-
4b-}	-men.}
=20	=20
4r	.
{8ff#	{Horch,
8r	.
=21	=21
8r	.
8b	von
[4b	fern
=22	=22
8b]	|
8b	ein
8b	lei-
8cc#	-ser
=23	=23
8.dd#	Har-
16ff#	-fen-
[4ff#	-ton!
=24	=24
2ff#_	|
=25	=25
8ff#]}	|}
8r	.
4r	.
=26	=26
8r	.
{4gg	{Fru2h-
16ee	-ling,
16cc	|
=27	=27
8.g	ja
32cc	du
32ee	|
4gg	bist's!
=28	=28
8r	.
4gg	Fru2h-
16ee-	-ling,
16b-	|
=29	=29
8.g	ja
32b-	du
32ee-	|
4gg}	bist's!}
=30	=30
8r	.
{[8gg	{Dich
16gg]	|
16dd	hab
16bn	ich
16cc	ver-
=31	=31
8cc#	-nom-
8dd	-men,
[4ee	ja
=32	=32
2ee_	|
=33	=33
4ee]}	|}
{4dd;	{du
=34	=34
[2gg	bist's!
=35	=35
2gg_	|
=36	=36
4gg]}	|}
4r	.
*-	*-
